X: 12321
T: Fairyland, The
R: waltz
M: 3/4
K: Dmajor
|:d2 c2 B2|A4 F2|A4 FG|A2 (3GAG F2|E4 A2|e4 A2|e4 Ac|d2 f2 e2:|
|:d2 A2 B2|c2 B3 A|G2 F2 E2|D2 F3 A|B4 A2|c2 e3 g|B4 c2|d2 f2 A2|B4 AB|
c2 B2 A2|G3 F E2|D2 F2 A2|B6|c2 e2 g2|B4 c2|d6:|

